X:11155
T:Moran's Return
M:4/4
L:1/8
C:Traditional
S:"Lead The Knave," Nollaig Casey & Arty McGlynn
R:Air
K:D
FA|:.B2 .E2 .E2 AG|.F2 .D2 .D2 de|(f>f) e/2 dc dB AF|E2 EF G2 GA|
.B2 .E2 .E2 AG|.F2 .D2 .D2 de|(f>f) e/2 dc dB AF|1 E2 D2 D2 (3EFG:|2 E2
D2
D2 FE|
|:D2 dc d3 e|fe dc B2 AF|B2 e2 e3 f|gf ed e2 de|
f2 gf e2 fe|de dB A2 de|(f>f) f/2 dc dB AF||1 E2 D2 D2 FE:|2 E2 D2 "d.c.
"D2 |
